cssgg/digitalocean.svg

<svg
  width="24"
  height="24"
  viewBox="0 0 24 24"
  fill="none"
  xmlns="http://www.w3.org/2000/svg"
>
  <path
    d="M12 6C8.68629 6 6 8.68629 6 12H1C1 5.92487 5.92487 1 12 1C18.0751 1 23 5.92487 23 12C23 18.0751 18.0751 23 12 23V18C15.3137 18 18 15.3137 18 12C18 8.68629 15.3137 6 12 6Z"
    fill="currentColor"
  />
  <path d="M7 18V13H12V18H7Z" fill="currentColor" />
  <path d="M3 18V22H7V18H3Z" fill="currentColor" />
  <path d="M3 18H1V16H3V18Z" fill="currentColor" />
</svg>

<svg viewBox="0 0 24 24" xmlns="http://www.w3.org/2000/svg"><g><path d="M12 6c-3.32 0-6 2.68-6 6H1C1 5.92 5.92 1 12 1c6.07 0 11 4.92 11 11 0 6.07-4.93 11-11 11v-5c3.31 0 6-2.69 6-6 0-3.32-2.69-6-6-6Z"/><path d="M7 18v-5h5v5H7Z"/><path d="M3 18v4h4v-4H3Z"/><path d="M3 18H1v-2h2v2Z"/></g></svg>
